assets/img/braze_icons/image-05.svg

<svg fill="none" height="24" viewBox="0 0 24 24" width="24" xmlns="http://www.w3.org/2000/svg"><g fill="#801ed7"><path d="m18 2c-2.2091 0-4 1.79086-4 4s1.7909 4 4 4 4-1.79086 4-4-1.7909-4-4-4z"/><path d="m17.7662 11.9553c-.4905-.2034-1.0418-.2034-1.5323 0-.3711.1539-.6248.4213-.8077.6481-.1608.1994-.3329.4541-.5173.7304l-2.7935-4.03508c-.2017-.29134-.3896-.56287-.564-.7717-.1832-.21929-.4348-.4752-.7982-.62295-.4829-.19631-1.02343-.19631-1.50635 0-.36347.14775-.61508.40366-.79821.62295-.1744.20884-.36233.48035-.564.7717l-5.99338 8.65708c-.26025.3759-.49357.7129-.6551.9988-.1609.2848-.347238.678-.32534 1.1401.027917.589.31436 1.1357.78277 1.494.36744.281.79684.3516 1.12259.3814.327.03.73682.0299 1.19396.0299h14.98986.0107 1.043c.4484 0 .8515 0 1.174-.0295.3226-.0296.7458-.0997 1.1104-.3755.4664-.3528.755-.8921.7899-1.4758.0272-.4564-.1492-.8474-.3036-1.1323-.1542-.2846-.3779-.6201-.6267-.9932l-3.0565-4.5847c-.2034-.3052-.3921-.5883-.5673-.8056-.183-.2268-.4366-.4942-.8077-.6481z"/></g></svg>

<svg width="24" height="24" viewBox="0 0 24 24" fill="none" xmlns="http://www.w3.org/2000/svg">
<path d="M18 2C15.7909 2 14 3.79086 14 6C14 8.20914 15.7909 10 18 10C20.2091 10 22 8.20914 22 6C22 3.79086 20.2091 2 18 2Z" fill="#801ED7"/>
<path d="M17.7662 11.9553C17.2757 11.7519 16.7244 11.7519 16.2339 11.9553C15.8628 12.1092 15.6091 12.3766 15.4262 12.6034C15.2654 12.8028 15.0933 13.0575 14.9089 13.3338L12.1154 9.29872C11.9137 9.00738 11.7258 8.73585 11.5514 8.52702C11.3682 8.30773 11.1166 8.05182 10.7532 7.90407C10.2703 7.70776 9.72977 7.70776 9.24685 7.90407C8.88338 8.05182 8.63177 8.30773 8.44864 8.52702C8.27424 8.73586 8.08631 9.00737 7.88464 9.29872L1.89126 17.9558C1.63101 18.3317 1.39769 18.6687 1.23616 18.9546C1.07526 19.2394 0.888922 19.6326 0.91082 20.0947C0.938737 20.6837 1.22518 21.2304 1.69359 21.5887C2.06103 21.8697 2.49043 21.9403 2.81618 21.9701C3.14318 22.0001 3.553 22 4.01014 22L19 22C19.0036 22 19.0072 22 19.0107 22L20.0537 22C20.5021 22 20.9052 22 21.2277 21.9705C21.5503 21.9409 21.9735 21.8708 22.3381 21.595C22.8045 21.2422 23.0931 20.7029 23.128 20.1192C23.1552 19.6628 22.9788 19.2718 22.8244 18.9869C22.6702 18.7023 22.4465 18.3668 22.1977 17.9937L19.1412 13.409C18.9378 13.1038 18.7491 12.8207 18.5739 12.6034C18.3909 12.3766 18.1373 12.1092 17.7662 11.9553Z" fill="#801ED7"/>
</svg>
